X: 29795
T: O'Callaghan's
R: hornpipe
M: 4/4
K: Gmajor
|:~G3A BGBd|~g3a .b.gdB|~A3B c3e|af (3.g.f.e dcBA|
~G3A BGBd|~g3a .b.gdB|Agec BGAF|1 G3 GF GDEF]:|2 G3 GFGz Bc]:|
|:d_edG (3ABc dg|ecAG (3.F.G.A DB|Adfa ~g3!mordent!f|edcB (3ABc dB|
~G3A BGBd|~g3a .b.gdB|Agec BGAF|G3 GFGz Bc:|

